X:130
T: Willow Tree
S: "First Collection of Traditional Irish Music" (M.Mulvihill)
Z: B.Black
L: 1/8
M: 4/4
R: reel
K: D
dcAF G2 FG|Ad (3dcd fdec|dcAF G2 FG|AFGE FD D2|
dcAF G2 FG|Ad (3dcd (3fga ec|dcAF G2 FG|1 AFGE FD D2 :|2\
AFGE FDDe||
f2 fa gfed|cdef g2 fe|defg a2 ge|a2 ge fdde|
f2 fa gfed|cdef g2 fe|(3aba ge a2 ge|(3aba fe fd d2 :|
